styles/2/Numix-Circle/48x48/apps/numix-folders.svg

<?xml version="1.0" encoding="UTF-8" standalone="no"?>
<svg
   xmlns:dc="http://purl.org/dc/elements/1.1/"
   xmlns:cc="http://creativecommons.org/ns#"
   xmlns:rdf="http://www.w3.org/1999/02/22-rdf-syntax-ns#"
   xmlns:svg="http://www.w3.org/2000/svg"
   xmlns="http://www.w3.org/2000/svg"
   xmlns:xlink="http://www.w3.org/1999/xlink"
   xmlns:sodipodi="http://sodipodi.sourceforge.net/DTD/sodipodi-0.dtd"
   xmlns:inkscape="http://www.inkscape.org/namespaces/inkscape"
   viewBox="0 0 48 48"
   id="svg2"
   version="1.1"
   inkscape:version="0.91 r13725"
   sodipodi:docname="numix-folders.svg">
  <metadata
     id="metadata35">
    <rdf:RDF>
      <cc:Work
         rdf:about="">
        <dc:format>image/svg+xml</dc:format>
        <dc:type
           rdf:resource="http://purl.org/dc/dcmitype/StillImage" />
      </cc:Work>
    </rdf:RDF>
  </metadata>
  <sodipodi:namedview
     pagecolor="#ffffff"
     bordercolor="#666666"
     borderopacity="1"
     objecttolerance="10"
     gridtolerance="10"
     guidetolerance="10"
     inkscape:pageopacity="0"
     inkscape:pageshadow="2"
     inkscape:window-width="622"
     inkscape:window-height="982"
     id="namedview33"
     showgrid="true"
     inkscape:object-nodes="true"
     inkscape:snap-smooth-nodes="true"
     inkscape:zoom="6.9532167"
     inkscape:cx="26.642695"
     inkscape:cy="17.120878"
     inkscape:window-x="648"
     inkscape:window-y="32"
     inkscape:window-maximized="0"
     inkscape:current-layer="svg2">
    <inkscape:grid
       type="xygrid"
       id="grid3377" />
  </sodipodi:namedview>
  <defs
     id="defs4">
    <linearGradient
       id="linearGradient3764"
       x1="1"
       x2="47"
       gradientUnits="userSpaceOnUse"
       gradientTransform="matrix(0,-1,1,0,-1.5e-6,47.999998)">
      <stop
         style="stop-color:#6cb85a;stop-opacity:1"
         id="stop7" />
      <stop
         offset="1"
         style="stop-color:#79be68;stop-opacity:1"
         id="stop9" />
    </linearGradient>
    <linearGradient
       id="linearGradient3764-6"
       x1="1"
       x2="47"
       gradientUnits="userSpaceOnUse"
       gradientTransform="matrix(0,-1,1,0,-1.5e-6,47.999998)">
      <stop
         style="stop-color:#e4e4e4;stop-opacity:1"
         id="stop7-1" />
      <stop
         offset="1"
         style="stop-color:#eee;stop-opacity:1"
         id="stop9-5" />
    </linearGradient>
    <linearGradient
       inkscape:collect="always"
       xlink:href="#linearGradient3764-6"
       id="linearGradient4251"
       x1="1"
       y1="24"
       x2="47"
       y2="24"
       gradientUnits="userSpaceOnUse" />
    <linearGradient
       inkscape:collect="always"
       xlink:href="#linearGradient3764-6"
       id="linearGradient4253"
       gradientUnits="userSpaceOnUse"
       x1="1"
       y1="24"
       x2="47"
       y2="24" />
  </defs>
  <g
     id="g11">
    <path
       d="m 36.31 5 c 5.859 4.062 9.688 10.831 9.688 18.5 c 0 12.426 -10.07 22.5 -22.5 22.5 c -7.669 0 -14.438 -3.828 -18.5 -9.688 c 1.037 1.822 2.306 3.499 3.781 4.969 c 4.085 3.712 9.514 5.969 15.469 5.969 c 12.703 0 23 -10.298 23 -23 c 0 -5.954 -2.256 -11.384 -5.969 -15.469 c -1.469 -1.475 -3.147 -2.744 -4.969 -3.781 z m 4.969 3.781 c 3.854 4.113 6.219 9.637 6.219 15.719 c 0 12.703 -10.297 23 -23 23 c -6.081 0 -11.606 -2.364 -15.719 -6.219 c 4.16 4.144 9.883 6.719 16.219 6.719 c 12.703 0 23 -10.298 23 -23 c 0 -6.335 -2.575 -12.06 -6.719 -16.219 z"
       style="opacity:0.05"
       id="path13" />
    <path
       d="m 41.28 8.781 c 3.712 4.085 5.969 9.514 5.969 15.469 c 0 12.703 -10.297 23 -23 23 c -5.954 0 -11.384 -2.256 -15.469 -5.969 c 4.113 3.854 9.637 6.219 15.719 6.219 c 12.703 0 23 -10.298 23 -23 c 0 -6.081 -2.364 -11.606 -6.219 -15.719 z"
       style="opacity:0.1"
       id="path15" />
    <path
       d="m 31.25 2.375 c 8.615 3.154 14.75 11.417 14.75 21.13 c 0 12.426 -10.07 22.5 -22.5 22.5 c -9.708 0 -17.971 -6.135 -21.12 -14.75 a 23 23 0 0 0 44.875 -7 a 23 23 0 0 0 -16 -21.875 z"
       style="opacity:0.2"
       id="path17" />
  </g>
  <g
     id="g19"
     style="fill:url(#linearGradient4251);fill-opacity:1"
     transform="matrix(0,-1,1,0,0,48)">
    <path
       d="M 24,1 C 36.703,1 47,11.297 47,24 47,36.703 36.703,47 24,47 11.297,47 1,36.703 1,24 1,11.297 11.297,1 24,1 Z"
       style="fill:url(#linearGradient4253);fill-opacity:1"
       id="path21"
       inkscape:connector-curvature="0" />
  </g>
  <g
     id="g23">
    <path
       d="m 40.03 7.531 c 3.712 4.084 5.969 9.514 5.969 15.469 0 12.703 -10.297 23 -23 23 c -5.954 0 -11.384 -2.256 -15.469 -5.969 4.178 4.291 10.01 6.969 16.469 6.969 c 12.703 0 23 -10.298 23 -23 0 -6.462 -2.677 -12.291 -6.969 -16.469 z"
       style="opacity:0.1"
       id="path25" />
  </g>
  <path
     d="m 15.75 15 c -0.391 0 -0.75 0.422 -0.75 0.875 l 0 1.125 -1.094 0 -0.094 0 c -0.441 0.043 -0.816 0.419 -0.813 0.844 l 0 16.281 c 0 0.453 0.434 0.875 0.906 0.875 l 22.19 0 c 0.469 0 0.906 -0.422 0.906 -0.875 l 0 -14.219 c 0 -0.449 -0.438 -0.906 -0.906 -0.906 l -1.094 0 0 -3.125 c 0 -0.454 -0.355 -0.875 -0.75 -0.875 l -18.5 0 z"
     style="fill:#000;opacity:0.1;fill-opacity:1;stroke:none;fill-rule:nonzero"
     id="path27" />
  <path
     style="opacity:1;fill:#cdc22c;fill-opacity:1;fill-rule:nonzero;stroke:none;stroke-width:2.5;stroke-linejoin:round;stroke-miterlimit:4;stroke-dasharray:none;stroke-opacity:1"
     d="M 21 14 L 21 20 L 27 20 L 27 14 L 21 14 z "
     id="rect3421-4-9-0" />
  <path
     style="opacity:1;fill:#cf5829;fill-opacity:1;fill-rule:nonzero;stroke:none;stroke-width:2.5;stroke-linejoin:round;stroke-miterlimit:4;stroke-dasharray:none;stroke-opacity:1"
     d="M 32 14 L 32 20 L 34 20 L 34 14.867188 C 34 14.412188 33.645 14 33.25 14 L 32 14 z "
     id="rect3419-9-7-5" />
  <path
     style="opacity:1;fill:#ed8e68;fill-opacity:1;fill-rule:nonzero;stroke:none;stroke-width:2.5;stroke-linejoin:round;stroke-miterlimit:4;stroke-dasharray:none;stroke-opacity:1"
     d="M 32 18 L 32 34 L 35.101562 34 C 35.570563 34 36 33.589719 36 33.136719 L 36 18.894531 C 36 18.445531 35.569563 18 35.101562 18 L 32 18 z "
     id="rect3419-9-7" />
  <path
     style="opacity:1;fill:#617fa1;fill-opacity:1;fill-rule:nonzero;stroke:none;stroke-width:2.5;stroke-linejoin:round;stroke-miterlimit:4;stroke-dasharray:none;stroke-opacity:1"
     d="M 14.75 14 C 14.359 14 14 14.414188 14 14.867188 L 14 20 L 16 20 L 16 14 L 14.75 14 z "
     id="rect3413-8-1-5" />
  <path
     style="opacity:1;fill:#9ab9dd;fill-opacity:1;fill-rule:nonzero;stroke:none;stroke-width:2.5;stroke-linejoin:round;stroke-miterlimit:4;stroke-dasharray:none;stroke-opacity:1"
     d="M 12.808594 16 C 12.369244 16.04487 11.997009 16.435598 12 16.859375 L 12 33.136719 C 12 33.589719 12.430344 34 12.902344 34 L 16 34 L 16 16 L 12.808594 16 z "
     id="rect3413-8-1" />
  <path
     style="opacity:1;fill:#5a945c;fill-opacity:1;fill-rule:nonzero;stroke:none;stroke-width:2.5;stroke-linejoin:round;stroke-miterlimit:4;stroke-dasharray:none;stroke-opacity:1"
     d="M 16 14 L 16 20 L 21 20 L 21 14 L 16 14 z "
     id="rect3415-6-0-2" />
  <path
     style="opacity:1;fill:#9add9c;fill-opacity:1;fill-rule:nonzero;stroke:none;stroke-width:2.5;stroke-linejoin:round;stroke-miterlimit:4;stroke-dasharray:none;stroke-opacity:1"
     d="M 16 16 L 16 34 L 21 34 L 21 16 L 16 16 z "
     id="rect3415-6-0" />
  <path
     style="opacity:1;fill:#cf8d27;fill-opacity:1;fill-rule:nonzero;stroke:none;stroke-width:2.5;stroke-linejoin:round;stroke-miterlimit:4;stroke-dasharray:none;stroke-opacity:1"
     d="M 27 14 L 27 20 L 32 20 L 32 14 L 27 14 z "
     id="rect3417-3-7-6" />
  <path
     style="opacity:1;fill:#edb968;fill-opacity:1;fill-rule:nonzero;stroke:none;stroke-width:2.5;stroke-linejoin:round;stroke-miterlimit:4;stroke-dasharray:none;stroke-opacity:1"
     d="M 27 18 L 27 34 L 32 34 L 32 18 L 27 18 z "
     id="rect3417-3-7" />
  <path
     style="opacity:1;fill:#f3f284;fill-opacity:1;fill-rule:nonzero;stroke:none;stroke-width:2.5;stroke-linejoin:round;stroke-miterlimit:4;stroke-dasharray:none;stroke-opacity:1"
     d="M 21 16 L 21 34 L 27 34 L 27 18 L 26 18 L 26 16.875 C 26 16.426 25.542219 16 25.074219 16 L 21 16 z "
     id="rect3421-4-9" />
</svg>

<svg xmlns="http://www.w3.org/2000/svg" viewBox="0 0 48 48">
 <defs>
  <linearGradient id="linearGradient4251" x1="1" x2="47" gradientUnits="userSpaceOnUse">
   <stop style="stop-color:#e4e4e4;stop-opacity:1"/>
   <stop offset="1" style="stop-color:#eee;stop-opacity:1"/>
  </linearGradient>
 </defs>
 <g>
  <path d="m 36.31 5 c 5.859 4.062 9.688 10.831 9.688 18.5 c 0 12.426 -10.07 22.5 -22.5 22.5 c -7.669 0 -14.438 -3.828 -18.5 -9.688 c 1.037 1.822 2.306 3.499 3.781 4.969 c 4.085 3.712 9.514 5.969 15.469 5.969 c 12.703 0 23 -10.298 23 -23 c 0 -5.954 -2.256 -11.384 -5.969 -15.469 c -1.469 -1.475 -3.147 -2.744 -4.969 -3.781 z m 4.969 3.781 c 3.854 4.113 6.219 9.637 6.219 15.719 c 0 12.703 -10.297 23 -23 23 c -6.081 0 -11.606 -2.364 -15.719 -6.219 c 4.16 4.144 9.883 6.719 16.219 6.719 c 12.703 0 23 -10.298 23 -23 c 0 -6.335 -2.575 -12.06 -6.719 -16.219 z" style="opacity:0.05"/>
  <path d="m 41.28 8.781 c 3.712 4.085 5.969 9.514 5.969 15.469 c 0 12.703 -10.297 23 -23 23 c -5.954 0 -11.384 -2.256 -15.469 -5.969 c 4.113 3.854 9.637 6.219 15.719 6.219 c 12.703 0 23 -10.298 23 -23 c 0 -6.081 -2.364 -11.606 -6.219 -15.719 z" style="opacity:0.1"/>
  <path d="m 31.25 2.375 c 8.615 3.154 14.75 11.417 14.75 21.13 c 0 12.426 -10.07 22.5 -22.5 22.5 c -9.708 0 -17.971 -6.135 -21.12 -14.75 a 23 23 0 0 0 44.875 -7 a 23 23 0 0 0 -16 -21.875 z" style="opacity:0.2"/>
 </g>
 <g transform="matrix(0,-1,1,0,0,48)" style="fill:url(#linearGradient4251);fill-opacity:1">
  <path d="M 24,1 C 36.703,1 47,11.297 47,24 47,36.703 36.703,47 24,47 11.297,47 1,36.703 1,24 1,11.297 11.297,1 24,1 Z"/>
 </g>
 <g>
  <path d="m 40.03 7.531 c 3.712 4.084 5.969 9.514 5.969 15.469 0 12.703 -10.297 23 -23 23 c -5.954 0 -11.384 -2.256 -15.469 -5.969 4.178 4.291 10.01 6.969 16.469 6.969 c 12.703 0 23 -10.298 23 -23 0 -6.462 -2.677 -12.291 -6.969 -16.469 z" style="opacity:0.1"/>
 </g>
 <path d="m 15.75 15 c -0.391 0 -0.75 0.422 -0.75 0.875 l 0 1.125 -1.094 0 -0.094 0 c -0.441 0.043 -0.816 0.419 -0.813 0.844 l 0 16.281 c 0 0.453 0.434 0.875 0.906 0.875 l 22.19 0 c 0.469 0 0.906 -0.422 0.906 -0.875 l 0 -14.219 c 0 -0.449 -0.438 -0.906 -0.906 -0.906 l -1.094 0 0 -3.125 c 0 -0.454 -0.355 -0.875 -0.75 -0.875 l -18.5 0 z" style="fill:#000;opacity:0.1;fill-opacity:1;stroke:none;fill-rule:nonzero"/>
 <path d="m 21 14 l 0 6 l 6 0 l 0 -6 l -6 0 z" style="fill:#cdc22c;opacity:1;fill-opacity:1;stroke:none;fill-rule:nonzero"/>
 <path d="m 32 14 l 0 6 l 2 0 l 0 -5.133 c 0 -0.455 -0.355 -0.867 -0.75 -0.867 l -1.25 0 z" style="fill:#cf5829;opacity:1;fill-opacity:1;stroke:none;fill-rule:nonzero"/>
 <path d="m 32 18 l 0 16 l 3.102 0 c 0.469 0 0.898 -0.41 0.898 -0.863 l 0 -14.242 c 0 -0.449 -0.43 -0.895 -0.898 -0.895 l -3.102 0 z" style="fill:#ed8e68;opacity:1;fill-opacity:1;stroke:none;fill-rule:nonzero"/>
 <path d="m 14.75 14 c -0.391 0 -0.75 0.414 -0.75 0.867 l 0 5.133 l 2 0 l 0 -6 l -1.25 0 z" style="fill:#617fa1;opacity:1;fill-opacity:1;stroke:none;fill-rule:nonzero"/>
 <path d="m 12.809 16 c -0.439 0.045 -0.812 0.436 -0.809 0.859 l 0 16.277 c 0 0.453 0.43 0.863 0.902 0.863 l 3.098 0 l 0 -18 l -3.191 0 z" style="fill:#9ab9dd;opacity:1;fill-opacity:1;stroke:none;fill-rule:nonzero"/>
 <path d="m 16 14 l 0 6 l 5 0 l 0 -6 l -5 0 z" style="fill:#5a945c;opacity:1;fill-opacity:1;stroke:none;fill-rule:nonzero"/>
 <path d="m 16 16 l 0 18 l 5 0 l 0 -18 l -5 0 z" style="fill:#9add9c;opacity:1;fill-opacity:1;stroke:none;fill-rule:nonzero"/>
 <path d="m 27 14 l 0 6 l 5 0 l 0 -6 l -5 0 z" style="fill:#cf8d27;opacity:1;fill-opacity:1;stroke:none;fill-rule:nonzero"/>
 <path d="m 27 18 l 0 16 l 5 0 l 0 -16 l -5 0 z" style="fill:#edb968;opacity:1;fill-opacity:1;stroke:none;fill-rule:nonzero"/>
 <path d="m 21 16 l 0 18 l 6 0 l 0 -16 l -1 0 l 0 -1.125 c 0 -0.449 -0.458 -0.875 -0.926 -0.875 l -4.074 0 z" style="fill:#f3f284;opacity:1;fill-opacity:1;stroke:none;fill-rule:nonzero"/>
</svg>
